public/img/decorations/deco-lines-1.svg

<svg width="51" height="204" viewBox="0 0 51 204" fill="none" xmlns="http://www.w3.org/2000/svg">
<path d="M40.4381 0.995028C40.4791 1.24703 40.6181 1.56305 40.5591 1.83805C39.3091 7.67905 39.7661 13.557 40.0901 19.442C40.2741 22.811 40.6541 26.144 41.2031 29.471C41.4241 30.804 41.1891 32.205 41.3011 33.565C41.6531 37.862 41.9611 42.168 42.4871 46.445C43.0381 50.927 43.8331 55.38 44.4951 59.848C44.7881 61.825 45.0651 63.806 45.2681 65.793C45.9091 72.07 46.6801 78.342 47.0651 84.635C47.3011 88.495 46.8971 92.393 46.8351 96.275C46.8101 97.836 46.9171 99.4 46.9911 100.962C47.0911 103.062 47.2081 105.16 47.3311 107.258C47.5361 110.723 47.7691 114.186 47.9581 117.652C48.1341 120.904 48.2631 124.16 48.4251 127.413C48.6131 131.193 48.6481 134.99 49.0481 138.749C49.7201 145.045 49.7511 151.355 49.8121 157.668C49.8711 163.663 49.8611 169.657 50.5111 175.629C50.6261 176.673 50.6591 177.734 50.6161 178.783C50.4661 182.568 50.2271 186.349 50.1001 190.136C50.0361 192.02 50.1391 193.908 50.1721 195.795C50.1901 196.848 50.2421 197.9 50.2311 198.952C50.2231 199.547 49.8311 199.905 49.2761 200.037C48.6941 200.174 47.9811 199.702 47.8581 199.072C47.7581 198.562 47.7151 198.033 47.7171 197.512C47.7251 192.675 47.5781 187.847 47.9881 183.003C48.2791 179.565 47.9371 176.069 47.8301 172.601C47.7681 170.603 47.5491 168.609 47.5101 166.611C47.3651 159.349 47.3341 152.086 47.1231 144.827C47.0251 141.467 46.5231 138.119 46.3651 134.759C46.1831 130.874 46.1771 126.981 46.0921 123.091C46.0841 122.672 46.0921 122.249 46.0451 121.833C45.5781 117.757 45.1331 113.686 45.0531 109.573C44.9241 102.947 44.4651 96.329 44.6701 89.696C44.8611 83.47 44.3831 77.288 43.4711 71.131C43.2091 69.362 43.1471 67.566 42.9071 65.793C42.0481 59.434 41.0651 53.088 40.3001 46.717C39.7861 42.438 39.5971 38.121 39.1931 33.827C38.8381 30.058 38.3671 26.302 37.9821 22.535C37.4571 17.411 37.1621 12.274 37.5501 7.12705C37.6931 5.24005 37.8841 3.33503 38.8801 1.65003C39.1971 1.11203 39.5681 0.536028 40.4381 0.995028Z" fill="black"/>
<path d="M26.3357 199.151C25.9647 199.112 25.4997 199.181 25.1857 198.998C24.8637 198.808 24.5408 198.398 24.4708 198.035C24.3128 197.221 24.3637 196.368 24.2367 195.545C23.2487 189.066 23.2228 182.535 23.1348 176.008C23.0348 168.64 22.9767 161.272 22.8277 153.904C22.7297 149.066 22.3297 144.23 22.3707 139.395C22.4487 130.442 21.8807 121.509 21.7457 112.564C21.6577 106.775 21.4727 100.978 22.0507 95.205C22.3907 91.816 21.7308 88.486 21.6738 85.124C21.6348 82.81 21.3987 80.496 21.4217 78.185C21.4667 73.866 21.0157 69.58 20.7307 65.282C20.5297 62.243 20.2038 59.211 19.9458 56.175C19.7758 54.183 19.6667 52.185 19.4617 50.196C18.9147 44.935 19.1808 39.672 19.4148 34.413C19.5828 30.618 19.5067 26.858 19.0607 23.071C18.5217 18.478 18.3318 13.844 17.9748 9.22902C17.8618 7.76002 17.6247 6.29803 17.5767 4.82903C17.5567 4.25103 17.8367 3.63301 18.0977 3.09001C18.1957 2.88801 18.6487 2.73503 18.9117 2.76903C19.1637 2.80103 19.4158 3.077 19.6008 3.3C19.7238 3.447 19.7627 3.69003 19.7807 3.89403C20.0507 7.24903 20.3037 10.605 20.5737 13.96C20.8437 17.314 21.2028 20.661 21.3808 24.02C21.5648 27.485 21.6637 30.959 21.6447 34.428C21.6217 38.738 21.3717 43.046 21.3597 47.355C21.3557 49.021 21.7618 50.685 21.9278 52.356C22.0938 54.03 22.1757 55.711 22.3257 57.387C22.5137 59.477 22.7707 61.561 22.9307 63.652C23.2037 67.216 23.4967 70.781 23.6537 74.352C23.8507 78.861 23.8157 83.382 24.0677 87.888C24.3877 93.573 24.2297 99.232 23.7997 104.904C23.6337 107.084 23.8898 109.295 23.9498 111.492C24.1648 119.062 24.3907 126.632 24.5847 134.202C24.7257 139.672 24.8037 145.143 24.9397 150.613C25.1097 157.443 25.3477 164.272 25.4807 171.103C25.5397 174.254 25.3067 177.412 25.3967 180.561C25.5257 184.974 25.8147 189.383 26.0767 193.791C26.1257 194.625 26.4087 195.442 26.5177 196.276C26.6407 197.193 26.8767 198.131 26.3357 199.151Z" fill="black"/>
<path d="M3.34411 18.314C3.55311 21.767 3.76012 25.219 3.96712 28.672C4.11212 31.083 4.27612 33.494 4.39712 35.907C4.69212 41.789 4.7641 47.691 5.3091 53.549C5.7971 58.779 6.09213 64.021 6.52813 69.252C6.94613 74.273 7.66713 79.29 7.36413 84.357C7.32713 84.982 7.36813 85.629 7.49313 86.243C8.35413 90.505 8.16511 94.842 8.48711 99.141C8.94611 105.226 8.58911 111.329 9.01211 117.412C9.33211 122.035 9.81112 126.635 10.6601 131.195C10.9491 132.742 11.1131 134.319 11.2241 135.889C11.6791 142.397 12.1241 148.906 12.5131 155.418C12.9251 162.359 12.8221 169.322 12.3081 176.236C11.6711 184.794 12.2241 193.258 13.1561 201.737C13.1891 202.048 13.2281 202.385 13.1381 202.673C13.0581 202.939 12.8511 203.275 12.6201 203.356C12.3991 203.433 11.9461 203.307 11.8271 203.121C11.4951 202.611 11.1101 202.039 11.0561 201.462C10.3721 194.347 9.54812 187.222 9.95812 180.066C10.4401 171.649 10.5171 163.238 10.2781 154.818C10.2291 153.135 10.1391 151.452 10.0121 149.774C9.73511 146.106 9.25213 142.445 9.17013 138.774C9.07613 134.643 8.39711 130.601 7.80511 126.544C7.07511 121.535 6.68212 116.506 6.59612 111.451C6.47712 104.612 6.3931 97.775 5.8301 90.951C5.1131 82.249 4.46511 73.542 3.87911 64.831C3.22111 55.072 2.6451 45.309 2.0801 35.545C1.8911 32.289 2.02911 29.004 1.68511 25.769C1.24911 21.661 1.44112 17.574 1.50512 13.472C1.53812 11.262 1.42512 9.04798 0.720115 6.91298C0.589115 6.51698 0.548125 6.08999 0.480125 5.67599C0.388125 5.13299 0.423099 4.63798 0.972099 4.31698C1.4621 4.02998 1.95112 4.32699 2.33712 5.20699C3.02112 6.76299 3.4421 8.384 3.4681 10.092C3.5071 12.829 3.53411 15.566 3.56811 18.302C3.49411 18.307 3.42011 18.311 3.34411 18.314Z" fill="black"/>
</svg>

<svg width="51" height="204" fill="none" xmlns="http://www.w3.org/2000/svg"><path d="M40.438.995c.041.252.18.568.121.843-1.25 5.841-.793 11.719-.469 17.604a92.446 92.446 0 001.113 10.029c.221 1.333-.014 2.734.098 4.094.352 4.297.66 8.603 1.186 12.88.551 4.482 1.346 8.935 2.008 13.403.293 1.977.57 3.958.773 5.945.641 6.277 1.412 12.549 1.797 18.842.236 3.86-.168 7.758-.23 11.64-.025 1.561.082 3.125.156 4.687.1 2.1.217 4.198.34 6.296.205 3.465.438 6.928.627 10.394.176 3.252.305 6.508.467 9.761.188 3.78.223 7.577.623 11.336.672 6.296.703 12.606.764 18.919.06 5.995.05 11.989.7 17.961a21.03 21.03 0 01.104 3.154c-.15 3.785-.389 7.566-.516 11.353-.064 1.884.04 3.772.072 5.659.018 1.053.07 2.105.06 3.157-.009.595-.4.953-.956 1.085-.582.137-1.295-.335-1.418-.965a7.992 7.992 0 01-.14-1.56c.007-4.837-.14-9.665.27-14.509.291-3.438-.05-6.934-.158-10.402-.062-1.998-.28-3.992-.32-5.99-.145-7.262-.176-14.525-.387-21.784-.098-3.36-.6-6.708-.758-10.068-.182-3.885-.188-7.778-.273-11.668-.008-.419 0-.842-.047-1.258-.467-4.076-.912-8.147-.992-12.26-.129-6.626-.588-13.244-.383-19.877.191-6.226-.287-12.408-1.199-18.565-.262-1.769-.324-3.565-.564-5.338-.859-6.359-1.842-12.705-2.607-19.076-.514-4.279-.703-8.596-1.107-12.89-.355-3.769-.826-7.525-1.21-11.292-.526-5.124-.82-10.261-.433-15.408.143-1.887.334-3.792 1.33-5.477.317-.538.688-1.114 1.558-.655zM26.336 199.151c-.371-.039-.836.03-1.15-.153-.322-.19-.645-.6-.715-.963-.158-.814-.107-1.667-.234-2.49-.988-6.479-1.014-13.01-1.102-19.537-.1-7.368-.158-14.736-.307-22.104-.098-4.838-.498-9.674-.457-14.509.078-8.953-.49-17.886-.625-26.831-.088-5.789-.273-11.586.305-17.359.34-3.389-.32-6.719-.377-10.081-.04-2.314-.275-4.628-.252-6.939.045-4.319-.406-8.605-.691-12.903-.201-3.039-.527-6.071-.785-9.107-.17-1.992-.28-3.99-.484-5.979-.547-5.261-.281-10.524-.047-15.783.168-3.795.092-7.555-.354-11.342-.54-4.593-.73-9.227-1.086-13.842-.113-1.469-.35-2.931-.398-4.4-.02-.578.26-1.196.52-1.739.099-.202.552-.355.815-.321.252.032.504.308.689.531.123.147.162.39.18.594.27 3.355.523 6.711.793 10.066.27 3.354.629 6.701.807 10.06.184 3.465.283 6.939.264 10.408-.023 4.31-.273 8.618-.285 12.927-.004 1.666.402 3.33.568 5.001.166 1.674.248 3.355.398 5.031.188 2.09.445 4.174.605 6.265.273 3.564.566 7.129.723 10.7.197 4.509.162 9.03.414 13.536.32 5.685.162 11.344-.268 17.016-.166 2.18.09 4.391.15 6.588.215 7.57.44 15.14.635 22.71.14 5.47.219 10.941.355 16.411.17 6.83.408 13.659.54 20.49.06 3.151-.173 6.309-.083 9.458.129 4.413.418 8.822.68 13.23.049.834.332 1.651.44 2.485.124.917.36 1.855-.181 2.875zM3.344 18.314c.21 3.453.416 6.905.623 10.358.145 2.411.31 4.822.43 7.235.295 5.882.367 11.784.912 17.642.488 5.23.783 10.472 1.22 15.703.417 5.021 1.138 10.038.835 15.105a7.367 7.367 0 00.13 1.886c.86 4.262.671 8.599.993 12.898.46 6.085.102 12.188.525 18.271.32 4.623.8 9.223 1.648 13.783.29 1.547.453 3.124.564 4.694.455 6.508.9 13.017 1.29 19.529.411 6.941.308 13.904-.206 20.818-.637 8.558-.084 17.022.848 25.501.033.311.072.648-.018.936-.08.266-.287.602-.518.683-.22.077-.674-.049-.793-.235-.332-.51-.717-1.082-.77-1.659-.685-7.115-1.509-14.24-1.099-21.396.482-8.417.56-16.828.32-25.248a108.827 108.827 0 00-.266-5.044c-.277-3.668-.76-7.329-.842-11-.094-4.131-.773-8.173-1.365-12.23a118.489 118.489 0 01-1.209-15.093c-.119-6.839-.203-13.676-.766-20.5a1741.652 1741.652 0 01-1.95-26.12c-.659-9.759-1.235-19.522-1.8-29.286-.189-3.256-.05-6.541-.395-9.776-.436-4.108-.244-8.195-.18-12.297.033-2.21-.08-4.424-.785-6.559C.59 6.517.548 6.09.48 5.676.388 5.133.423 4.638.972 4.317c.49-.287.98.01 1.365.89.684 1.556 1.105 3.177 1.131 4.885.04 2.737.066 5.474.1 8.21a7.972 7.972 0 01-.224.012z" fill="#000"/></svg>
